neru-light-classic/32x32/apps/mirage.svg

<?xml version="1.0" encoding="UTF-8" standalone="no"?>
<svg
   xmlns:dc="http://purl.org/dc/elements/1.1/"
   xmlns:cc="http://creativecommons.org/ns#"
   xmlns:rdf="http://www.w3.org/1999/02/22-rdf-syntax-ns#"
   xmlns:svg="http://www.w3.org/2000/svg"
   xmlns="http://www.w3.org/2000/svg"
   xmlns:sodipodi="http://sodipodi.sourceforge.net/DTD/sodipodi-0.dtd"
   xmlns:inkscape="http://www.inkscape.org/namespaces/inkscape"
   height="32"
   width="32"
   version="1"
   id="svg24"
   sodipodi:docname="mirage.svg"
   inkscape:version="0.92.1 r">
  <metadata
     id="metadata30">
    <rdf:RDF>
      <cc:Work
         rdf:about="">
        <dc:format>image/svg+xml</dc:format>
        <dc:type
           rdf:resource="http://purl.org/dc/dcmitype/StillImage" />
        <dc:title></dc:title>
      </cc:Work>
    </rdf:RDF>
  </metadata>
  <defs
     id="defs28" />
  <sodipodi:namedview
     pagecolor="#ffffff"
     bordercolor="#666666"
     borderopacity="1"
     objecttolerance="10"
     gridtolerance="10"
     guidetolerance="10"
     inkscape:pageopacity="0"
     inkscape:pageshadow="2"
     inkscape:window-width="1680"
     inkscape:window-height="966"
     id="namedview26"
     showgrid="false"
     inkscape:zoom="12.639534"
     inkscape:cx="12.061589"
     inkscape:cy="11.095043"
     inkscape:current-layer="svg24"
     inkscape:window-x="0"
     inkscape:window-y="0"
     inkscape:window-maximized="1" />
  <path
     style="opacity:1;fill:#eed83e;fill-opacity:1;fill-rule:evenodd;stroke:none;stroke-width:1.03534329;stroke-linecap:round;stroke-linejoin:bevel;stroke-miterlimit:4;stroke-dasharray:none;stroke-dashoffset:0;stroke-opacity:1"
     d="M 29.908203 25.484375 C 29.049491 24.967797 28.248187 24.391594 27.294922 23.982422 C 25.667047 23.283685 23.919884 22.743748 22.109375 22.369141 C 20.298866 21.994534 18.424537 21.784758 16.548828 21.748047 C 14.67312 21.711336 12.794178 21.847158 10.970703 22.162109 C 9.1472287 22.477061 7.380369 22.971963 5.7265625 23.652344 C 4.4242499 24.188119 3.2667851 24.933118 2.1347656 25.703125 C 2.6579601 28.074308 4.5982424 29.844235 7.0839844 30.023438 L 24.916016 30.023438 C 27.477939 29.838743 29.4648 27.963631 29.908203 25.484375 z "
     id="path4549" />
  <path
     style="opacity:1;fill:#434750;fill-opacity:1;fill-rule:evenodd;stroke:none;stroke-width:1.03534329;stroke-linecap:round;stroke-linejoin:bevel;stroke-miterlimit:4;stroke-dasharray:none;stroke-dashoffset:0;stroke-opacity:1"
     d="M 7.4726562 1.8984375 C 4.3840054 1.8984375 1.8984375 4.3840054 1.8984375 7.4726562 L 1.8984375 24.527344 C 1.8984375 24.94497 2.0485033 25.312173 2.1347656 25.703125 C 3.2667851 24.933118 4.4242499 24.188119 5.7265625 23.652344 C 7.380369 22.971963 9.1472287 22.477061 10.970703 22.162109 C 12.794178 21.847158 14.67312 21.711336 16.548828 21.748047 C 18.424537 21.784758 20.298866 21.994534 22.109375 22.369141 C 23.919884 22.743748 25.667047 23.283685 27.294922 23.982422 C 28.248187 24.391594 29.049491 24.967797 29.908203 25.484375 C 29.965951 25.161484 30.101562 24.867341 30.101562 24.527344 L 30.101562 7.4726562 C 30.101563 4.3840054 27.615995 1.8984375 24.527344 1.8984375 L 7.4726562 1.8984375 z "
     id="rect4497-3" />
  <g
     id="g4555"
     transform="translate(-0.04278705,-0.05935113)">
    <rect
       y="10.931398"
       x="14.586721"
       height="14.077238"
       width="3.4830279"
       id="rect4523"
       style="opacity:1;fill:#c37700;fill-opacity:1;stroke:none;stroke-width:0.38911951;stroke-miterlimit:4;stroke-dasharray:none;stroke-opacity:1" />
    <path
       sodipodi:nodetypes="cccccccc"
       inkscape:connector-curvature="0"
       id="path4519"
       d="M 6.3145308,16.494568 C 6.9972454,3.5938894 26.079515,4.8291528 25.809812,16.929947 24.366495,15.164411 23.15949,13.068037 21.1174,12.140783 21.38723,14.355609 20.591251,16.265918 20.004766,18.236081 18.76313,16.2729 17.521495,14.629983 16.27986,14.075798 14.59781,15.084126 13.12805,16.41089 12.216328,18.57471 10.580966,14.890063 11.01605,13.949103 11.200445,12.38266 9.2808357,13.276287 7.5904325,14.569972 6.3145308,16.494568 Z"
       style="fill:#4e9a06;fill-opacity:1;stroke:#407612;stroke-width:0.43235505px;stroke-linecap:butt;stroke-linejoin:miter;stroke-opacity:1" />
  </g>
</svg>

<svg xmlns="http://www.w3.org/2000/svg" height="32" width="32" version="1"><path d="M29.908 25.484c-.859-.516-1.66-1.092-2.613-1.502a27.091 27.091 0 0 0-5.186-1.613 30.483 30.483 0 0 0-5.56-.621 29.48 29.48 0 0 0-5.578.414c-1.824.315-3.59.81-5.244 1.49-1.303.536-2.46 1.281-3.592 2.051.523 2.371 2.463 4.141 4.949 4.32h17.832c2.562-.184 4.549-2.06 4.992-4.539z" fill="#eed83e" fill-rule="evenodd"/><path d="M7.473 1.898a5.561 5.561 0 0 0-5.575 5.575v17.054c0 .418.15.785.237 1.176 1.132-.77 2.29-1.515 3.592-2.05a24.972 24.972 0 0 1 5.244-1.49 29.48 29.48 0 0 1 5.578-.415c1.876.037 3.75.247 5.56.621 1.81.375 3.558.915 5.186 1.613.953.41 1.754.986 2.613 1.502.058-.323.194-.617.194-.957V7.473a5.561 5.561 0 0 0-5.575-5.575H7.473z" fill="#434750" fill-rule="evenodd"/><path fill="#c37700" d="M14.544 10.872h3.483v14.077h-3.483z"/><path d="M6.272 16.435c.682-12.9 19.765-11.665 19.495.436-1.443-1.766-2.65-3.862-4.692-4.79.27 2.215-.527 4.126-1.113 6.096-1.242-1.963-2.483-3.606-3.725-4.16-1.682 1.008-3.152 2.335-4.063 4.498-1.636-3.684-1.2-4.625-1.016-6.192-1.92.894-3.61 2.188-4.886 4.112z" fill="#4e9a06" stroke="#407612" stroke-width=".432"/></svg>
